build/system/DoubleArrowLeftOutline.svg

<svg xmlns="http://www.w3.org/2000/svg" fill="none" viewBox="0 0 24 24" focusable="false"><path d="M0 0H24V24H0z"/><path fill="#74767B" fill-rule="evenodd" d="M11.4833 7.99882C11.3533 7.85882 11.1833 7.78882 11.0033 7.78882C10.8433 7.78882 10.6933 7.83882 10.5633 7.95882L6.58016 11.5451C6.27016 11.8251 6.27016 12.3051 6.58016 12.5851L10.5594 16.0429C10.8294 16.2829 11.2394 16.2629 11.4794 16.0029C11.7194 15.7329 11.7094 15.3229 11.4394 15.0829L7.95015 12.0651L11.4433 8.91882C11.7033 8.67882 11.7233 8.26882 11.4833 7.99882ZM15.0033 7.78882C15.1833 7.78882 15.3533 7.85882 15.4833 7.99882C15.7233 8.26882 15.7033 8.67882 15.4433 8.91882L11.9501 12.0651L15.4394 15.0829C15.7094 15.3229 15.7194 15.7329 15.4794 16.0029C15.2394 16.2629 14.8294 16.2829 14.5594 16.0429L10.5802 12.5851C10.2702 12.3051 10.2702 11.8251 10.5802 11.5451L14.5633 7.95882C14.6933 7.83882 14.8433 7.78882 15.0033 7.78882Z"/></svg>

<svg xmlns="http://www.w3.org/2000/svg" fill="none" viewBox="0 0 24 24" focusable="false"><path fill="#74767B" fill-rule="evenodd" d="M11 7.78c.18 0 .35.07.48.21.24.27.22.68-.04.92l-3.49 3.15 3.48 3.02c.27.24.28.65.04.92-.24.26-.65.28-.92.04l-3.97-3.46a.7.7 0 0 1 0-1.04l3.98-3.59c.13-.12.28-.17.44-.17m4 0c.18 0 .35.07.48.21.24.27.22.68-.04.92l-3.49 3.15 3.48 3.02c.27.24.28.65.04.92-.24.26-.65.28-.92.04l-3.97-3.46a.7.7 0 0 1 0-1.04l3.98-3.59c.13-.12.28-.17.44-.17"/></svg>
